X:122
T: SO GEHT ES IN SCHNUETZELPUTZ HAEUSEL
N: Z0122
O: Europa, Mitteleuropa, Deutschland
R: Erzaehlung, lustige Romanze, Unsinns - Verse
M: 6/8
L: 1/8
K: C
C | C_B,A,A,G,A, | _B,2A,G,2
C | C_B,A,A,G,A, | _B,2A,G,2
C | CA,F,D_B,G, | A,2G,F,2
G, | G,A,B,CDE | DEFE2
G, | G,A,B,CDE | DEFE2
E | ECA,FDB, | A,3B,3 | C3C2

@@@ Tune index: 9880
